svg/italic.svg

<svg xmlns="http://www.w3.org/2000/svg" viewBox="0 0 32 32" enable-background="new 0 0 32 32"><path d="M 11.75 5 L 11.6875 5.9375 L 11.5 8.9375 L 11.4375 10 L 12.5 10 L 13.4375 10 L 12.5625 22 L 11.5 22 L 10.5625 22 L 10.5 22.9375 L 10.3125 25.9375 L 10.21875 27 L 11.3125 27 L 19.3125 27 L 20.25 27 L 20.3125 26.0625 L 20.5 23.0625 L 20.5625 22 L 19.5 22 L 18.5625 22 L 19.4375 10 L 20.5 10 L 21.4375 10 L 21.5 9.0625 L 21.6875 6.0625 L 21.78125 5 L 20.6875 5 L 12.6875 5 L 11.75 5 z M 13.625 7 L 19.625 7 L 19.5625 8 L 18.5 8 L 17.5625 8 L 17.5 8.9375 L 16.5 22.9375 L 16.4375 24 L 17.5 24 L 18.4375 24 L 18.375 25 L 12.375 25 L 12.4375 24 L 13.5 24 L 14.4375 24 L 14.5 23.0625 L 15.5 9.0625 L 15.5625 8 L 14.5 8 L 13.5625 8 L 13.625 7 z" color="#000" overflow="visible" enable-background="accumulate"/></svg>

<svg xmlns="http://www.w3.org/2000/svg" viewBox="0 0 32 32"><path d="M11.75 5l-.063.938-.187 3L11.437 10h2.001l-.876 12h-2l-.062.938-.188 3L10.22 27H20.25l.063-.938.187-3L20.563 22h-2.001l.875-12h2.001l.062-.938.188-3L21.78 5H11.75zm1.875 2h6l-.063 1h-2l-.062.938-1 14L16.437 24h2.001l-.063 1h-6l.063-1h2l.062-.938 1-14L15.563 8h-2.001l.063-1z"/></svg>
